X:1
T:Title
%%score ( 1 2 ) { 3 | 4 }
L:1/8
Q:1/4=115
M:4/4
K:Ab
V:1 treble nm="Grand Piano, Soprano"
V:2 treble 
V:3 bass nm="Choir Pad, Riga, Robert Lowry, 1877"
V:4 bass 
V:1
 [EA]4 [FA]3 [DF] | [CE]6 [EA]2 | [EG]2 [EA]2 [Ed]2 [Ec]2 | [EB]8 | [CA]4 [EA]3 [EG] | %5
w: By~Robert~Lowry,~1877 * *|||||
 [DF]6 [EF]2 | [FB]2 B-[DB] [CA]2 [FB]2 | [=Ec]8 | [Fd]4 [EG]3 [EG] | [EA]4 [CE]2 [Ec]2 | %10
w: |||||
 [Ed]2 [EG]2 [EF]2 [EG]2 | [EA]4 [CE]4 | [Ec]4 [DB]3 [CA] | [Fd]6 [Fd]2 | [Fc]2 [FB]2 [EA]2 [DG]2 | %15
w: |||||
 [CA]8 |] %16
w: |
V:2
 x8 | x8 | x8 | x8 | x8 | x8 | z2 .E2 z4 | x8 | x8 | x8 | x8 | x8 | x8 | x8 | x8 | x8 |] %16
V:3
 C4 A,3 A, | A,6 C2 | B,2 A,2 G,2 A,2 | G,8 | A,4 A,3 A, | A,6 =A,2 | D2 G,2 A,2 F,2 | G,8 | %8
 B,4[K:treble] D3 D | C4 A,2 A,2 | B,2 D2 D2 D2 | C4[K:bass] A,4 | A,4 G,3 A, | A,6 B,2 | %14
 E2 D2 C2 B,2 | A,8 |] %16
V:4
 A,,4 D,3 D, | A,,6 A,,2 | E,D, C,2 B,,2 A,,2 | E,8 | F,4 C,3 C, | D,6 C,2 | B,,2 E,2 F,2 D,2 | %7
 C,8 | B,,4 E,3 E, | A,,6 z2 | E,2 E,2 E,2 E,2 | A,,8 | z4 E,3 F, | D,6 B,,2 | C,2 D,2 E,2 E,2 | %15
 A,,8 |] %16

